img/Featured.svg

<svg width="113" height="40" viewBox="0 0 113 40" fill="none" xmlns="http://www.w3.org/2000/svg">
<path d="M8 40L0 32H8V40Z" fill="#B7B8C1"/>
<path d="M0 8C0 3.58172 3.58172 0 8 0H105C109.418 0 113 3.58172 113 8V24C113 28.4183 109.418 32 105 32H0V8Z" fill="#191A23"/>
<path fill-rule="evenodd" clip-rule="evenodd" d="M25.5998 9.6001C25.7763 9.60004 25.9479 9.65839 26.0879 9.76605C26.2278 9.87371 26.3282 10.0246 26.3734 10.1953L27.3166 13.7601L29.9998 15.3073C30.1214 15.3775 30.2224 15.4785 30.2926 15.6001C30.3628 15.7217 30.3997 15.8597 30.3997 16.0001C30.3997 16.1405 30.3628 16.2785 30.2926 16.4001C30.2224 16.5217 30.1214 16.6227 29.9998 16.6929L27.3166 18.2409L26.3726 21.8049C26.3273 21.9754 26.2269 22.1262 26.0871 22.2337C25.9472 22.3413 25.7758 22.3996 25.5994 22.3996C25.423 22.3996 25.2515 22.3413 25.1117 22.2337C24.9718 22.1262 24.8714 21.9754 24.8262 21.8049L23.883 18.2401L21.1998 16.6929C21.0782 16.6227 20.9772 16.5217 20.907 16.4001C20.8368 16.2785 20.7998 16.1405 20.7998 16.0001C20.7998 15.8597 20.8368 15.7217 20.907 15.6001C20.9772 15.4785 21.0782 15.3775 21.1998 15.3073L23.883 13.7593L24.827 10.1953C24.8721 10.0248 24.9724 9.87394 25.1122 9.76629C25.2519 9.65865 25.4234 9.60022 25.5998 9.6001Z" fill="white"/>
<path d="M20.5653 17.8344C20.4153 17.6844 20.2118 17.6001 19.9996 17.6001C19.7874 17.6001 19.584 17.6844 19.4339 17.8344C19.2839 17.9844 19.1996 18.1879 19.1996 18.4001V19.2001H18.3996C18.1874 19.2001 17.984 19.2844 17.8339 19.4344C17.6839 19.5844 17.5996 19.7879 17.5996 20.0001C17.5996 20.2123 17.6839 20.4158 17.8339 20.5658C17.984 20.7158 18.1874 20.8001 18.3996 20.8001H19.1996V21.6001C19.1996 21.8123 19.2839 22.0158 19.4339 22.1658C19.584 22.3158 19.7874 22.4001 19.9996 22.4001C20.2118 22.4001 20.4153 22.3158 20.5653 22.1658C20.7153 22.0158 20.7996 21.8123 20.7996 21.6001V20.8001H21.5996C21.8118 20.8001 22.0153 20.7158 22.1653 20.5658C22.3153 20.4158 22.3996 20.2123 22.3996 20.0001C22.3996 19.7879 22.3153 19.5844 22.1653 19.4344C22.0153 19.2844 21.8118 19.2001 21.5996 19.2001H20.7996V18.4001C20.7996 18.1879 20.7153 17.9844 20.5653 17.8344Z" fill="white"/>
<path d="M20.5653 9.83441C20.4153 9.68438 20.2118 9.6001 19.9996 9.6001C19.7874 9.6001 19.584 9.68438 19.4339 9.83441C19.2839 9.98444 19.1996 10.1879 19.1996 10.4001V11.2001H18.3996C18.1874 11.2001 17.984 11.2844 17.8339 11.4344C17.6839 11.5844 17.5996 11.7879 17.5996 12.0001C17.5996 12.2123 17.6839 12.4158 17.8339 12.5658C17.984 12.7158 18.1874 12.8001 18.3996 12.8001H19.1996V13.6001C19.1996 13.8123 19.2839 14.0158 19.4339 14.1658C19.584 14.3158 19.7874 14.4001 19.9996 14.4001C20.2118 14.4001 20.4153 14.3158 20.5653 14.1658C20.7153 14.0158 20.7996 13.8123 20.7996 13.6001V12.8001H21.5996C21.8118 12.8001 22.0153 12.7158 22.1653 12.5658C22.3153 12.4158 22.3996 12.2123 22.3996 12.0001C22.3996 11.7879 22.3153 11.5844 22.1653 11.4344C22.0153 11.2844 21.8118 11.2001 21.5996 11.2001H20.7996V10.4001C20.7996 10.1879 20.7153 9.98444 20.5653 9.83441Z" fill="white"/>
<path d="M37.19 21V11.242H43.518V12.068H38.1V15.624H42.804V16.45H38.1V21H37.19ZM45.147 21V11.242H51.531V12.068H46.057V15.624H50.971V16.45H46.057V20.174H51.531V21H45.147ZM52.4958 21L56.1218 11.242H56.8918L60.5038 21H59.5098L56.5138 12.516L53.5178 21H52.4958ZM54.2878 18.494L54.5818 17.668H58.4318L58.7398 18.494H54.2878ZM63.1426 21V12.068H59.7266V11.242H67.4686V12.068H64.0666V21H63.1426ZM72.2281 21.14C71.1081 21.14 70.2494 20.8273 69.6521 20.202C69.0547 19.5767 68.7561 18.6667 68.7561 17.472V11.242H69.6661V17.374C69.6661 18.0087 69.7547 18.5453 69.9321 18.984C70.1094 19.4133 70.3847 19.74 70.7581 19.964C71.1407 20.1787 71.6307 20.286 72.2281 20.286C72.8161 20.286 73.3014 20.174 73.6841 19.95C74.0667 19.7167 74.3514 19.3853 74.5381 18.956C74.7247 18.5173 74.8181 17.9807 74.8181 17.346V11.242H75.7141V17.402C75.7141 18.6153 75.4154 19.544 74.8181 20.188C74.2207 20.8227 73.3574 21.14 72.2281 21.14ZM78.0142 21V11.242H80.7582C81.4769 11.242 82.0696 11.3493 82.5362 11.564C83.0122 11.7787 83.3669 12.0867 83.6002 12.488C83.8429 12.8893 83.9642 13.3747 83.9642 13.944C83.9642 14.7187 83.7402 15.3347 83.2922 15.792C82.8442 16.2493 82.1956 16.5247 81.3462 16.618C81.2156 16.6273 81.0569 16.6367 80.8702 16.646C80.6929 16.646 80.5202 16.646 80.3522 16.646H78.9242V21H78.0142ZM83.5582 21L80.9682 16.52L81.9062 16.394L84.6082 21H83.5582ZM78.9242 15.834H80.6602C81.1549 15.834 81.5796 15.7687 81.9342 15.638C82.2889 15.498 82.5596 15.2927 82.7462 15.022C82.9422 14.742 83.0402 14.3827 83.0402 13.944C83.0402 13.5053 82.9422 13.1507 82.7462 12.88C82.5502 12.6 82.2749 12.3947 81.9202 12.264C81.5656 12.1333 81.1456 12.068 80.6602 12.068H78.9242V15.834ZM86.231 21V11.242H92.615V12.068H87.141V15.624H92.055V16.45H87.141V20.174H92.615V21H86.231ZM94.4205 21V11.242H97.0525C98.6298 11.242 99.8525 11.676 100.72 12.544C101.598 13.4027 102.036 14.6207 102.036 16.198C102.036 17.7473 101.602 18.9373 100.734 19.768C99.8758 20.5893 98.6438 21 97.0385 21H94.4205ZM95.3305 20.16H96.9545C97.8411 20.16 98.5925 20.02 99.2085 19.74C99.8245 19.46 100.291 19.026 100.608 18.438C100.935 17.85 101.098 17.094 101.098 16.17C101.098 15.246 100.935 14.4807 100.608 13.874C100.291 13.2673 99.8291 12.8193 99.2225 12.53C98.6158 12.2313 97.8878 12.082 97.0385 12.082H95.3305V20.16Z" fill="white"/>
</svg>

<svg xmlns="http://www.w3.org/2000/svg" width="113" height="40" fill="none"><path fill="#B7B8C1" d="m8 40-8-8h8z"/><path fill="#191A23" d="M0 8a8 8 0 0 1 8-8h97a8 8 0 0 1 8 8v16a8 8 0 0 1-8 8H0z"/><path fill="#fff" fill-rule="evenodd" d="M25.6 9.6a.8.8 0 0 1 .773.595l.944 3.565L30 15.307a.8.8 0 0 1 0 1.386l-2.683 1.548-.944 3.564a.8.8 0 0 1-1.547 0l-.943-3.565-2.683-1.547a.8.8 0 0 1 0-1.386l2.683-1.548.944-3.564A.8.8 0 0 1 25.6 9.6" clip-rule="evenodd"/><path fill="#fff" d="M20.565 17.834a.8.8 0 0 0-1.365.566v.8h-.8a.8.8 0 0 0 0 1.6h.8v.8a.8.8 0 1 0 1.6 0v-.8h.8a.8.8 0 1 0 0-1.6h-.8v-.8a.8.8 0 0 0-.235-.566M20.565 9.834a.8.8 0 0 0-1.365.566v.8h-.8a.8.8 0 0 0 0 1.6h.8v.8a.8.8 0 1 0 1.6 0v-.8h.8a.8.8 0 1 0 0-1.6h-.8v-.8a.8.8 0 0 0-.235-.566M37.19 21v-9.758h6.328v.826H38.1v3.556h4.704v.826H38.1V21zm7.957 0v-9.758h6.384v.826h-5.474v3.556h4.914v.826h-4.914v3.724h5.474V21zm7.349 0 3.626-9.758h.77L60.504 21h-.994l-2.996-8.484L53.518 21zm1.792-2.506.294-.826h3.85l.308.826zM63.143 21v-8.932h-3.416v-.826h7.742v.826h-3.402V21zm9.085.14q-1.68 0-2.576-.938t-.896-2.73v-6.23h.91v6.132q0 .952.266 1.61.266.645.826.98.575.322 1.47.322.882 0 1.456-.336.574-.35.854-.994.28-.658.28-1.61v-6.104h.896v6.16q0 1.82-.896 2.786-.895.952-2.59.952m5.786-.14v-9.758h2.744q1.079 0 1.778.322.713.322 1.064.924.364.602.364 1.456 0 1.162-.672 1.848-.671.686-1.946.826-.196.015-.476.028h-1.946V21zm5.544 0-2.59-4.48.938-.126L84.608 21zm-4.634-5.166h1.736q.743 0 1.274-.196.533-.21.812-.616.294-.42.294-1.078t-.294-1.064a1.7 1.7 0 0 0-.826-.616q-.531-.195-1.26-.196h-1.736zM86.231 21v-9.758h6.384v.826h-5.474v3.556h4.914v.826h-4.914v3.724h5.474V21zm8.19 0v-9.758h2.631q2.367 0 3.668 1.302 1.316 1.288 1.316 3.654 0 2.325-1.302 3.57Q99.447 21 97.039 21zm.91-.84h1.623q1.33 0 2.255-.42a2.92 2.92 0 0 0 1.399-1.302q.49-.882.49-2.268t-.49-2.296a2.97 2.97 0 0 0-1.386-1.344q-.91-.448-2.183-.448H95.33z"/></svg>
